packages/icons/svg/Outline/shield.svg

<svg fill="none" height="24" viewBox="0 0 24 24" width="24" xmlns="http://www.w3.org/2000/svg"><path clip-rule="evenodd" d="m12 4.14659-6.99998 3.938v.145c0 4.74001 2.566 9.12901 6.69798 11.45401l.302.17.302-.17c4.132-2.325 6.698-6.714 6.698-11.45401v-.145zm0 17.70381c-.339 0-.678-.084-.979-.254l-.303-.171c-4.761-2.677-7.718-7.734-7.718-13.19597v-.145c0-.719.39-1.387 1.018-1.742l7.002-3.938c.605-.34 1.356-.341 1.959-.001l7.001 3.938c.63.356 1.02 1.024 1.02 1.743v.145c0 5.46197-2.957 10.51897-7.718 13.19597l-.302.17c-.302.17-.641.255-.98.255z" fill="#6b7280" fill-rule="evenodd"/></svg>

<svg width="24" height="24" viewBox="0 0 24 24" fill="none" xmlns="http://www.w3.org/2000/svg">
<g id="Icon/Outline/shield">
<path id="Mask" fill-rule="evenodd" clip-rule="evenodd" d="M12 4.14649L5 8.08449V8.22949C5 12.9695 7.566 17.3585 11.698 19.6835L12 19.8535L12.302 19.6835C16.434 17.3585 19 12.9695 19 8.22949V8.08449L12 4.14649ZM12 21.8505C11.661 21.8505 11.322 21.7665 11.021 21.5965L10.718 21.4255C5.957 18.7485 3 13.6915 3 8.22949V8.08449C3 7.36549 3.39 6.69749 4.018 6.34249L11.02 2.40449C11.625 2.06449 12.376 2.06349 12.979 2.40349L19.98 6.34149C20.61 6.69749 21 7.36549 21 8.08449V8.22949C21 13.6915 18.043 18.7485 13.282 21.4255L12.98 21.5955C12.678 21.7655 12.339 21.8505 12 21.8505Z" fill="#000000"/>
</g>
</svg>
